X:1
T:Title
%%score 1 { 2 | 3 }
L:1/8
Q:1/4=97
M:2/4
K:Bb
V:1 treble nm="Grand Piano, Soprano"
V:2 bass nm="Choir Pad, Fenelon, N. D. Gould, 1833"
V:3 bass 
V:1
 [DF]2 [DF][DF] | [DF]F [EG]2 | [EG]2 [DF]2 | [DB]2 [Fc][Fc] | [Fc][Fd] [Fc]2 | [=EB]2 [FA]2 | %6
w: By~Nathaniel~Duren~Gould,~1833 * *||||||
 [DF]2 [DF][DF] | [DF]F [EG]2 | [FA]2 [FB]2 | [DB]2 [Fc][Fc] | [Fc][Ge] [Fd]2 | [Ec]2 [DFB]2- | %12
w: ||||||
 [DFB]4- | [DFB]2 z2 |] %14
w: ||
V:2
 B,2 B,B, | B,B, B,2 | B,2 B,2 | G,2 A,A, | A,B, A,2 | C2 C2 | B,2 B,B, | B,B, B,2 | E2 D2 | %9
 B,2 A,A, | CC DB, | A,2 B,2- | B,4- | B,2 z2 |] %14
V:3
 B,,2 B,,B,, | B,,D, E,2 | E,2 B,,2 | z2 F,F, | F,B,, C,2 | C,2 F,2 | B,,2 B,,B,, | B,,D, E,2 | %8
 F,2 B,,2 | G,2 F,F, | E,C, F,2 | F,2 B,,2- | B,,4- | B,,2 z2 |] %14

